apps/documenteditor/main/resources/img/toolbar/2.5x/big/btn-phone.svg

<svg width="28" height="28" viewBox="0 0 28 28" fill="none" xmlns="http://www.w3.org/2000/svg">
<path d="M20.1565 15.7422C19.7564 15.3467 19.2807 15.1333 18.7873 15.1333C18.2938 15.1333 17.8226 15.3422 17.4225 15.7378L17.3158 15.84C16.9246 16.2267 16.5245 16.6222 16.1333 17.0267C16.0577 16.9867 15.9866 16.9511 15.911 16.9156C15.7287 16.8267 15.5598 16.7422 15.4042 16.6444C14.2172 15.8978 13.1236 14.9022 12.0656 13.6044C11.5588 12.9822 11.2032 12.4267 10.9542 11.8711C11.301 11.5378 11.6388 11.1911 11.9722 10.8578L12.2301 10.6C13.0703 9.75556 13.0658 8.66667 12.2256 7.81778C11.9722 7.56444 11.7144 7.30667 11.4654 7.05778C11.3543 6.94667 11.2432 6.83556 11.1365 6.72889C11.0209 6.61333 10.9009 6.49333 10.7853 6.37778C10.5319 6.12444 10.274 5.86222 10.0117 5.60444C9.61165 5.20889 9.13598 5 8.64252 5C8.14906 5 7.67783 5.20889 7.27773 5.60444C7.08658 5.79111 6.89986 5.98222 6.71315 6.16889C6.44642 6.44 6.17079 6.72 5.89072 6.98222C5.36615 7.48 5.07274 8.11111 5.01495 8.85333C4.92604 10.0178 5.25056 11.0711 5.54397 11.8578C6.20636 13.6356 7.2155 15.32 8.62918 17.0044C10.3941 19.1022 12.519 20.7644 14.9463 21.9467C16.2844 22.5956 17.4314 22.9289 18.5517 22.9911C18.6361 22.9956 18.7161 23 18.7962 23C19.7475 23 20.5299 22.6667 21.1212 22.0044C21.3746 21.7244 21.6413 21.4622 21.9303 21.1822C22.0725 21.04 22.2237 20.8978 22.3704 20.7511C23.2062 19.9067 23.2106 18.8178 22.3793 17.9822C21.6369 17.2133 20.8856 16.4622 20.1565 15.7422ZM21.6235 19.9867C21.4857 20.1289 21.339 20.2667 21.1968 20.4044C20.9122 20.6844 20.6144 20.9689 20.3388 21.28C19.912 21.7556 19.3741 21.9556 18.6272 21.9156C17.6537 21.8622 16.6356 21.5644 15.4309 20.9778C13.137 19.8622 11.132 18.2933 9.46495 16.3111C8.12683 14.72 7.17993 13.1422 6.562 11.48C6.18413 10.4622 6.04187 9.67556 6.09522 8.92889C6.13078 8.44444 6.30416 8.07111 6.64202 7.75111C6.93098 7.47556 7.21105 7.19111 7.48668 6.91556C7.66894 6.73333 7.85566 6.54222 8.03792 6.36444C8.17574 6.23111 8.39357 6.06667 8.65586 6.06667C8.91814 6.06667 9.13598 6.22667 9.27823 6.36444C9.53608 6.61778 9.79392 6.87556 10.0429 7.12889C10.1629 7.24889 10.2785 7.36444 10.3985 7.48444C10.5097 7.59556 10.6208 7.70667 10.7319 7.81333C10.9809 8.06222 11.2387 8.31556 11.4877 8.56889C11.9144 9 11.9189 9.41778 11.4921 9.84889L11.2343 10.1111C10.8742 10.4756 10.5008 10.8489 10.1273 11.2089C9.93618 11.3956 9.74502 11.7111 9.93618 12.1644C10.2251 12.8622 10.6475 13.5333 11.2565 14.2844C12.3901 15.6756 13.5682 16.7467 14.8574 17.5556C15.0575 17.68 15.2619 17.7822 15.462 17.88C15.5776 17.9378 15.6887 17.9911 15.7954 18.0489C15.9332 18.1244 16.071 18.16 16.2089 18.16C16.4311 18.16 16.6356 18.0667 16.8134 17.88C17.2313 17.4489 17.6625 17.0222 18.0849 16.6044L18.1916 16.5022C18.3294 16.3644 18.5472 16.2044 18.8051 16.2044C19.0629 16.2044 19.2852 16.3689 19.423 16.5022C20.1476 17.2222 20.8989 17.9689 21.6502 18.7244C22.0459 19.1378 22.0459 19.5644 21.6235 19.9867Z" fill="black"/>
</svg>

<svg xmlns="http://www.w3.org/2000/svg" width="28" height="28" fill="none"><path fill="#000" d="M20.157 15.742c-.4-.395-.876-.609-1.37-.609-.493 0-.964.21-1.364.605l-.107.102a74.46 74.46 0 0 0-1.183 1.187 5.115 5.115 0 0 0-.222-.111 5.387 5.387 0 0 1-.507-.272c-1.187-.746-2.28-1.742-3.338-3.04-.507-.622-.863-1.177-1.112-1.733.347-.333.685-.68 1.018-1.013l.258-.258c.84-.844.836-1.933-.004-2.782l-.76-.76-.33-.33-.35-.35c-.254-.254-.512-.516-.774-.774C9.612 5.21 9.136 5 8.642 5c-.493 0-.964.209-1.364.604-.191.187-.378.378-.565.565-.267.271-.542.551-.822.813-.525.498-.818 1.13-.876 1.871-.089 1.165.236 2.218.529 3.005.662 1.778 1.671 3.462 3.085 5.146a19.202 19.202 0 0 0 6.317 4.943c1.338.649 2.485.982 3.606 1.044.084.005.164.009.244.009.951 0 1.734-.333 2.325-.996.254-.28.52-.542.81-.822.142-.142.293-.284.44-.43.835-.845.84-1.934.008-2.77-.742-.769-1.493-1.52-2.223-2.24Zm1.466 4.245c-.137.142-.284.28-.426.417-.285.28-.583.565-.858.876-.427.476-.965.676-1.712.636-.973-.054-1.991-.352-3.196-.938a18.093 18.093 0 0 1-5.966-4.667C8.127 14.72 7.18 13.142 6.562 11.48c-.378-1.018-.52-1.804-.467-2.551.036-.485.21-.858.547-1.178.289-.275.569-.56.845-.835.182-.183.369-.374.55-.552.139-.133.357-.297.619-.297s.48.16.622.297c.258.254.516.512.765.765l.356.355c.11.112.222.223.333.33.249.248.507.502.756.755.426.431.43.849.004 1.28l-.258.262c-.36.365-.733.738-1.107 1.098-.19.187-.382.502-.19.955.288.698.71 1.37 1.32 2.12 1.133 1.392 2.311 2.463 3.6 3.272.2.124.405.226.605.324.116.058.227.111.333.169a.85.85 0 0 0 .414.111.817.817 0 0 0 .604-.28c.418-.431.85-.858 1.272-1.276l.107-.102c.137-.138.355-.298.613-.298s.48.165.618.298c.725.72 1.476 1.467 2.227 2.222.396.414.396.84-.026 1.263Z"/></svg>
